Origami/24x24/apps/dmd-doc.svg

<svg width="24" height="24" version="1" xmlns="http://www.w3.org/2000/svg">
 <path d="M 4.5,7 C 4.223,7 4,7.223 4,7.5 l 0,10 C 4,17.777 4.223,18 4.5,18 L 5.357422,18 5.5,18 9.642578,18 c 0.011075,0 0.02044,-0.0074 0.03125,-0.0088 A 5.5,5.5 0 0 0 15,12.5 5.5,5.5 0 0 0 9.663086,7.0058595 C 9.655921,7.005265 9.6498535,7 9.642578,7 L 5.5,7 5.357422,7 4.5,7 Z M 6,9 9.5,9 A 3.5,3.5 0 0 1 13,12.5 3.5,3.5 0 0 1 9.5,16 L 6,16 6,9 Z" style="opacity:.2"/>
 <rect transform="matrix(0,-1,-1,0,0,0)" x="-20" y="-22" width="16" height="20" rx="1" ry="1" style="fill:#c52f2f"/>
 <path d="m2 13v6c0 0.554 0.446 1 1 1h18c0.554 0 1-0.446 1-1v-2.631836c-6.135625-2.169481-15.018601-3.331866-20-3.368164z" style="opacity:.2"/>
 <path d="m3 4c-0.554 0-1 0.446-1 1v0.5c0-0.554 0.446-1 1-1h18c0.554 0 1 0.446 1 1v-0.5c0-0.554-0.446-1-1-1z" style="fill:#ffffff;opacity:.2"/>
 <path d="m2 19v0.5c0 0.554 0.446 1 1 1h18c0.554 0 1-0.446 1-1v-0.5c0 0.554-0.446 1-1 1h-18c-0.554 0-1-0.446-1-1z" style="opacity:.2"/>
 <path d="m19.00015 10.5c0 1.656854-1.343146 3-3 3-0.42762 0-0.834344-0.08947-1.202474-0.250708-1.058222-0.463498-0.490839-1.289466-0.490839-2.5187 0-0.575698-1.144527-1.344112-0.863392-1.8008755 0.527969-0.8578005 1.475548-1.4297165 2.556705-1.4297165 1.656854 0 3 1.343146 3 3z" style="opacity:.2"/>
 <path d="m19.00015 10c0 1.656854-1.343146 3-3 3-0.42762 0-0.834344-0.08947-1.202474-0.250708-1.058222-0.463498-0.490839-1.289466-0.490839-2.5187 0-0.5756975-1.144527-1.344112-0.863392-1.8008755 0.527969-0.8578005 1.475548-1.4297165 2.556705-1.4297165 1.656854 0 3 1.343146 3 3z" style="fill:#ff783e"/>
 <circle cx="20" cy="7.5" r="1" style="opacity:.2"/>
 <circle cx="20" cy="7" r="1" style="fill:#ffba46"/>
 <path d="m4.5454545 6.5c-0.3021818 0-0.5454545 0.2432727-0.5454545 0.5454545v10.90909c0 0.302182 0.2432727 0.545455 0.5454545 0.545455h0.9353695 0.1555396 4.5191764c0.01208 0 0.0223-0.0081 0.03409-0.0096 3.235704-0.102314 5.806807-2.753081 5.81037-5.9904-0.002029-3.2429736-2.58054-5.8974478-5.822088-5.9936078-0.007816-6.486e-4 -0.014435-0.0063922-0.022372-0.0063922h-4.5191764-0.1555396zm2.4545455 3h3c2.108724 0 3 0.891276 3 3s-1 3-3 3h-3z" style="opacity:.2"/>
 <path d="M 4.5454545,6 C 4.2432727,6 4,6.2432727 4,6.5454545 L 4,17.454545 C 4,17.756727 4.2432727,18 4.5454545,18 l 0.9353695,0 0.1555396,0 4.5191764,0 c 0.01208,0 0.0223,-0.0081 0.03409,-0.0096 C 13.425334,17.888086 15.996437,15.237319 16,12 15.997971,8.7570264 13.41946,6.1025522 10.177912,6.0063922 10.170096,6.0057436 10.163477,6 10.15554,6 L 5.6363636,6 5.480824,6 Z M 7,9 10,9 c 2.108724,0 3,0.8912763 3,3 0,2.108724 -1,3 -3,3 l -3,0 z" style="fill:#ffffff"/>
</svg>

<svg xmlns="http://www.w3.org/2000/svg" width="24" height="24" version="1">
 <path d="M 4.5,7 C 4.223,7 4,7.223 4,7.5 l 0,10 C 4,17.777 4.223,18 4.5,18 L 5.357422,18 5.5,18 9.642578,18 c 0.011075,0 0.02044,-0.0074 0.03125,-0.0088 A 5.5,5.5 0 0 0 15,12.5 5.5,5.5 0 0 0 9.663086,7.0058595 C 9.655921,7.005265 9.6498535,7 9.642578,7 L 5.5,7 5.357422,7 4.5,7 Z M 6,9 9.5,9 A 3.5,3.5 0 0 1 13,12.5 3.5,3.5 0 0 1 9.5,16 L 6,16 6,9 Z" style="opacity:0.2"/>
 <rect width="16" height="20" x="-20" y="-22" rx="1" ry="1" transform="matrix(0,-1,-1,0,0,0)" style="fill:#c52f2f"/>
 <path style="opacity:0.2" d="m 2,13 0,6 c 0,0.554 0.446,1 1,1 l 18,0 c 0.554,0 1,-0.446 1,-1 l 0,-2.631836 C 15.864375,14.198683 6.981399,13.036298 2,13 Z"/>
 <path d="M 3,4 C 2.446,4 2,4.446 2,5 l 0,0.5 c 0,-0.554 0.446,-1 1,-1 l 18,0 c 0.554,0 1,0.446 1,1 L 22,5 C 22,4.446 21.554,4 21,4 Z" style="opacity:0.2;fill:#ffffff"/>
 <path style="opacity:0.2" d="m 2,19 0,0.5 c 0,0.554 0.446,1 1,1 l 18,0 c 0.554,0 1,-0.446 1,-1 L 22,19 c 0,0.554 -0.446,1 -1,1 L 3,20 C 2.446,20 2,19.554 2,19 Z"/>
 <path d="m 19.00015,10.5 c 0,1.656854 -1.343146,3 -3,3 -0.42762,0 -0.834344,-0.08947 -1.202474,-0.250708 -1.058222,-0.463498 -0.490839,-1.289466 -0.490839,-2.5187 0,-0.575698 -1.144527,-1.344112 -0.863392,-1.8008755 C 13.971414,8.071916 14.918993,7.5 16.00015,7.5 c 1.656854,0 3,1.343146 3,3 z" style="opacity:0.2"/>
 <path style="fill:#ff783e" d="m 19.00015,10 c 0,1.656854 -1.343146,3 -3,3 -0.42762,0 -0.834344,-0.08947 -1.202474,-0.250708 -1.058222,-0.463498 -0.490839,-1.289466 -0.490839,-2.5187 0,-0.5756975 -1.144527,-1.344112 -0.863392,-1.8008755 C 13.971414,7.571916 14.918993,7 16.00015,7 c 1.656854,0 3,1.343146 3,3 z"/>
 <circle style="opacity:0.2" cx="20" cy="7.5" r="1"/>
 <circle cx="20" cy="7" r="1" style="fill:#ffba46"/>
 <path d="M 4.5454545,6.5 C 4.2432727,6.5 4,6.7432727 4,7.0454545 L 4,17.954545 C 4,18.256727 4.2432727,18.5 4.5454545,18.5 l 0.9353695,0 0.1555396,0 4.5191764,0 c 0.01208,0 0.0223,-0.0081 0.03409,-0.0096 C 13.425334,18.388086 15.996437,15.737319 16,12.5 15.997971,9.2570264 13.41946,6.6025522 10.177912,6.5063922 10.170096,6.5057436 10.163477,6.5 10.15554,6.5 l -4.5191764,0 -0.1555396,0 z M 7,9.5 l 3,0 c 2.108724,0 3,0.891276 3,3 0,2.108724 -1,3 -3,3 l -3,0 z" style="opacity:0.2"/>
 <path style="fill:#ffffff" d="M 4.5454545,6 C 4.2432727,6 4,6.2432727 4,6.5454545 L 4,17.454545 C 4,17.756727 4.2432727,18 4.5454545,18 l 0.9353695,0 0.1555396,0 4.5191764,0 c 0.01208,0 0.0223,-0.0081 0.03409,-0.0096 C 13.425334,17.888086 15.996437,15.237319 16,12 15.997971,8.7570264 13.41946,6.1025522 10.177912,6.0063922 10.170096,6.0057436 10.163477,6 10.15554,6 L 5.6363636,6 5.480824,6 Z M 7,9 10,9 c 2.108724,0 3,0.8912763 3,3 0,2.108724 -1,3 -3,3 l -3,0 z"/>
</svg>
